X:1
T:When Arthur first in court began
T:to wear long hanging sleaves
T:John Wall Callcott (1766-1821) Accompaniment added by William Horsley (1774-1858)
T:Lyrics are a 17th century parody of a ballad, "When Arthur first in court began" by Thomas Deloney (1543-1600)
T:When Arthur first in court began to wear long hanging sleaves
T:A three part glee
C:John Wall Callcott (1766-1821)
C:Accompaniment added by William Horsley (1774-1858)
Z:Lyrics are a 17th century parody of a
Z:ballad, "When Arthur first in court began"
Z:by Thomas Deloney (1543-1600)
%%score [ 1 2 3 ] { ( 4 5 ) | ( 6 7 ) }
L:1/8
Q:3/4=80
M:6/4
K:A
V:1 treble-8 transpose=-12 nm="Tenor" snm="T."
V:2 treble-8 transpose=-12 nm="Tenor" snm="T."
V:3 bass nm="Bass" snm="B."
V:4 treble nm="Piano" snm="Pno."
V:5 treble 
V:6 bass 
V:7 bass 
V:1
!f!"^Cheerfully" B2 | c4 c2 c4 c2 | d4 f2 f4 f2 | e4 e2 (d3 c) B2 | c6- c4 B2 | c4 c2 B4 B2 | %6
w: When|Ar- thur first in|court be- gan to|wear long hang- * ing|sleeves; _ he|en- ter- tained three|
 (A3 B) A2 G4 ^d2 | e4 B2 (A3 G) F2 | G6- G4 :: E2 | A4 E2 B4 E2 | (c3 B) c2 A4 z2 | z12 | z12 | %14
w: ser- * ving men, and|all of them _ were|thieves. _|The|first, he was an|I- * rish- man,|||
 z12 | z6 z2 z2 d2 | (e3 f) e2 (e2 d2) c2 | (c6 B4) B2 | c4 c2 e4 e2 | (a3 g) a2 g4 g2 | %20
w: |||wot. _ The|first, he was an|I- * rish- man, the|
 f4 e2 ^d4 d2 | e6- e4 e2 | e4 a2 f4 d2 | B6 c4 c2 | (d3 e) f2 (c3 d) B2 | c6- c4 :: B2 | %27
w: se- cond was a|Scot, _ the|third, he was a|Welsh- man, and|all _ were knaves, _ I|wot. _|The|
 c4 c2 e4 c2 | d4 f2 f4 f2 | e4 e2 (d3 c) B2 | c6 c4 B2 | c4 c2 B4 B2 | (A3 B) A2 G4 ^d2 | %33
w: I- rish- man loved|us- que- baugh, the|Scot loved ale _ called|"Blue Cap", the|Welsh- man he loved|toas- * ted cheese, and|
 e4 B2 c3 G F2 | G6 E4 ::"^1st tenor solo" A3 A E2 (B3 G) E2 | (c3 B) c2 A4 z2 | z12 | z12 | z12 | %40
w: made his mouth like a|mouse- trap.|Us- que- baugh burnt _ the|I- * rish- man,||||
 z6 z2 z2 dd | (e2 f2) e2 e3 d c2 | (c6 B4) z2 | c3 B c2 e4 e2 | (a3 g) a2 g4 g2 | f4 e2 ^d4 d2 | %46
w: but he|pulled _ her out by the|tail. _|Us- que- baugh burned the|I- * rish- man, the|Scot was drowned in|
 e6- e4 e2 | e3 c a2 f3 g a2 | d3 e f2 G4 BB | c4 f2 c3 d B2 | A6- A6 :|!f! f6 d6 | B6 c6 | %53
w: ale, _ the|Welsh- man had like to be|choked with a mouse, but he|pulled her out by the|tail. _|Pulled her,|pulled her,|
 d4 c2 B3 c d2 | (d6 c6) | B6 d6 | c6!ff! !fermata!f6 | (e3 f) d2 c3 a g2 | a6- a6 |] %59
w: pulled her out by the|tail. _|Pulled her,|pulled, her,|pulled * her out by the|tail. _|
V:2
!f! G2 | A4 A2 A4 A2 | A4 A2 d4 d2 | c4 A2 F4 G2 | A6- A4 G2 | A4 A2 G4 G2 | (F3 G) F2 E4 A2 | %7
w: When|Ar- thur first in|court be- gan to|wear long hang- ing|sleeves; _ he|en- ter- tained three|ser- * ving men, and|
 G4 E2 (F3 E) ^D2 | E6- E4 :: z2 | z12 | z6 z2 z2 B2 | c4 B2 A4 F2 | c6- c4 z2 | z12 | %15
w: all of them _ were|thieves. _|||the|se- cond was a|Scot, _||
 z6 z2 z2 G2 | A4 A2 (F2 B2) A2 | (A6 G4) G2 | (A3 B) A2 B4 B2 | c4 ^d2 e4 G2 | A4 c2 c4 ^B2 | %21
w: ||wot. _ The|first, _ he was an|I- rish- man, the|se- cond was a|
 c6- c4 d2 | c4 c2 A4 B2 | G6 A4 A2 | A4 A2 A4 G2 | A6- A4 :: G2 | A4 A2 A4 A2 | A4 A2 d4 A2 | %29
w: Scot, _ the|third, he was a|Welsh- man, and|all were knaves, I|wot. _|The|I- rish- man loved|us- que- baugh, the|
 c4 A2 F4 G2 | A6 A4 G2 | A4 A2 G4 G2 | F4 F2 E4 A2 | G4 E2 F3 E ^D2 | E6 E4 :: z12 | z6 z2 z2 B2 | %37
w: Scot loved ale called|"Blue Cap", the|Welsh- man he loved|toas- ted cheese, and|made his mouth like a|mouse- trap.||the|
 (c3 d) B2 (A3 G) F2 | c6- c4 z2 | z12 | z6 z2 z2 GG | A4 =G2 F3 ^G A2 | (A6 G4) z2 | %43
w: Scot _ was drowned _ in|ale; _||but he|pulled her out by the|tail. _|
 A3 B A2 B4 B2 | c4 ^d2 e4 G2 | A4 c2 c4 ^B2 | c6- c4 B2 | c3 A e2 d3 d c2 | B3 A A2 G4 EE | %49
w: Us- que- baugh burned the|I- rish- man, the|Scot was drowned in|ale, _ the|Welsh- man had like to be|choked with a mouse, but he|
 A4 A2 A3 A E2 | C6- C6 :|!f! A6 B6 | G6 A6 | B4 A2 G3 A B2 | (B6 A6) | e6 G6 | A6 !fermata!A6 | %57
w: pulled her out by the|tail. _|Pulled her,|pulled her,|pulled her out by the|tail. _|Pulled her,|pulled, her,|
!ff! c3 d B2 A3 c B2 | c6- c6 |] %59
w: pulled * her out by the|tail. _|
V:3
!f! E,2 | A,4 E,2 C,4 E,2 | F,4 D,2 A,,4 D,2 | A,4 C,2 D,4 E,2 | A,,6- A,,4 E,2 | %5
w: When|Ar- thur first in|court be- gan to|wear long hang- ing|sleeves; _ he|
 A,,4 A,,2 E,4 E,2 | B,,4 B,,2 E,4 B,,2 | C,4 G,,2 A,,4 B,,2 | E,6- E,4 :: z2 | z12 | z12 | z12 | %13
w: en- ter- tained three|ser- ving men, and|all of them were|thieves. _|||||
 z6 z2 z2 C,2 | D,4 D,2 (F,3 E,) D,2 | A,6 A,,4 B,,2 | C,4 C,2 D,4 D,2 | E,6- E,4 E,2 | %18
w: the|third, he was _ a|Welsh- man, *||wot. _ The|
 A,4 A,2 G,4 G,2 | F,4 F,2 E,4 C,2 | F,4 F,2 G,4 G,2 | C,6- C,4 B,,2 | A,,4 A,,2 D,4 B,,2 | %23
w: first, he was an|I- rish- man, the|se- cond was a|Scot, _ the|third, he was a|
 E,6 C,4 A,2 | F,4 D,2 E,4 E,2 | A,,6- A,,4 :: E,2 | A,4 E,2 C,4 E,2 | F,4 D,2 A,,4 D,2 | %29
w: Welsh- man, and|all were knaves, I|wot. _|The|I- rish- man loved|us- que- baugh, the|
 A,4 C,2 D,4 E,2 | A,6 A,4 E,2 | A,,4 A,,2 E,4 E,2 | B,,4 B,,2 E,4 B,,2 | C,4 G,,2 A,,3 A,, B,,2 | %34
w: Scot loved ale called|"Blue Cap", the|Welsh- man he loved|toas- ted cheese, and|made his mouth like a|
 E,6 E,4 :: z12 | z12 | z12 | z6 z2 z2 C,2 | F,3 G, A,2 B,,3 C, D,2 | E,3 F, G,2 A,4 B,,B,, | %41
w: mouse- trap.||||the|Welsh- man had like to be|choked with a mouse, but he|
 C,4 C,2 D,3 D, D,2 | E,6- E,4 z2 | A,3 G, A,2 G,4 G,2 | F,4 F,2 E,4 C,2 | F,4 F,2 G,4 G,,2 | %46
w: pulled her out by the|tail. _|Us- que- baugh burned the|I- rish- man, the|Scot was drowned in|
 C,6- C,4 E,2 | A,3 A, C,2 D,3 E, F,2 | B,,3 C, D,2 E,4 G,G, | A,4 D,2 E,3 E, E,2 | A,,6- A,,6 :| %51
w: ale, _ the|Welsh- man had like to be|choked with a mouse, but he|pulled her out by the|tail. _|
!f! D,6 B,,6 | E,6 A,,6 | E,4 E,2 E,3 E, E,2 | F,6- F,6 | G,6 E,6 | A,6!ff! !fermata!D,6 | %57
w: Pulled her,|pulled her,|pulled her out by the|tail. _|Pulled her,|pulled, her,|
 A,4 D,2 E,3 E, E,2 | A,,6- A,,6 |] %59
w: pulled her out by the|tail. _|
V:4
!f! B,2 | C4 C2 C4 C2 | D4 F2 F4 F2 | E4 E2 (D3 C B,2) | [A,C]6- [A,C]4[K:bass] [G,B,]2 | %5
 [A,C]4 [A,C]2 [G,B,]4 [G,B,]2 | ([F,A,]3 [G,B,] [F,A,]2) [E,G,]4 [A,^D]2 | %7
 [G,E]4 [E,B,]2 ([F,A,]3 [E,G,] [^D,F,]2) | [E,G,]6- [E,G,]4 :: E,2 | A,4 E,2 B,4 E,2 | %11
 (C3 B,) C2 A,4 B,2 | C4 B,2 A,4 F,2 | C6- C4 z2 | z12 | z6 z2 z2 D2 | (E3 F) E2 (E2 D2) C2 | %17
 ([A,C]6 [G,B,]4) [G,B,]2 | C4 C2 [B,E]4 [B,E]2 | A3 G A2 G4 G2 | F4 E2 ^D4 D2 | %21
 [CE]6- [CE]4 [DE]2 | [CE]4 [CA]2 [A,F]4 [B,D]2 | [G,B,]6 [A,C]4 [A,C]2 | (D3 E) F2 C3 [B,D] B,2 | %25
 [A,C]6- [A,C]4 :: [G,B,]2 | [A,C]4 [A,C]2 [A,E]4 [A,C]2 | [A,C]4 [A,C]2 [DF]4 [A,F]2 | %29
 E4 E2 D3 C B,2 | A,6 A,4[K:bass] [G,B,]2 | [A,C]4 [A,C]2 [G,B,]4 [G,B,]2 | (A,3 B, A,2) G,4 ^D2 | %33
 [G,E]4 [E,B,]2 [F,A,]3 [E,G,] [^D,F,]2 | G,6 E,4 :: A,3 A, E,2 (B,3 G,) E,2 | (C3 B,) C2 A,4 B,2 | %37
 (C3 D) B,2 (A,3 G,) F,2 | C6- C4 z2 | z12 | z6 z2 z2 DD | (E2 F2) E2 E3 D C2 | %42
 (([A,C]6 [G,B,]4)) z2 | [A,C]3 [B,D] [A,C]2 [B,E]4 [B,E]2 | A3 G x2 x6 | %45
 [A,F]4 [CE]2 [C^D]4 [^B,D]2 | [CE]6- [CE]4 [B,E]2 | [CE]3 C [EA]2 [DF]3 [DG] [CA]2 | %48
 [B,D]3 [A,E] [A,F]2 [G,B,]4 [G,B,][G,B,] | [CE]4 [A,F]2 [A,C]3 [A,D] B,2 | A,6- A,6 :| %51
!f! [A,F]6 [B,D]6 | [G,B,]6 [A,C]6 | [B,D]4 [A,C]2 ([G,B,]3 [A,C] [B,D]2) | ([B,D]6 [A,C]6) | %55
 [B,E]6 [G,D]6 | [A,C]6 !fermata![A,F]6 |!ff! [CE]3 [DF] [B,D]2 [A,C]3 [CA] [B,G]2 | %58
 [CA]6- [CA]6 |] %59
V:5
 G,2 | A,4 A,2 A,4 A,2 | A,4 A,2 D4 D2 | C4 A,2[I:staff +1] F,4 G,2 | x10[I:staff -1][K:bass] x2 | %5
 x12 | x12 | x12 | x10 :: x2 | x12 | x12 | x12 | x12 | x12 | x12 | x12 | x12 | x12 | %19
 C4 ^D2 E4[I:staff +1] G,2 | A,4[I:staff -1] C2 C4 ^B,2 | x12 | x12 | x12 | A,4 A,2 A,3 x G,2 | %25
 x10 :: x2 | x12 | x12 | x12 | x10[K:bass] x2 | x12 | F,4 F,2 E,4 A,2 | x12 | E,6 E,4 :: x12 | %36
 x12 | x12 | x12 | x12 | x6 x2 x2 G,G, | A,4 =G,2 F,3 ^G, A,2 | x12 | x12 | %44
 C4 [^DA]2 [EG]4 [G,G]2 | x12 | x12 | x12 | x12 | x12 | x12 :| x12 | x12 | x12 | x12 | x12 | x12 | %57
 x12 | x12 |] %59
V:6
 E,2 | A,4 E,2 C,4 E,2 | F,4 D,2 A,,4 D,2 | A,4 C,2 D,4 E,2 | A,,6- A,,4 E,2 | A,,4 A,,2 E,4 E,2 | %6
 B,,4 B,,2 E,4 B,,2 | C,4 G,,2 A,,4 B,,2 | E,6- E,4 :: z2 | z12 | z12 | z12 | z6 z2 z2 C,2 | %14
 D,4 D,2 F,3 E, D,2 | A,6 A,,4 G,2 | A,4 A,2 F,2 B,2[I:staff -1] A,2 |[I:staff +1] E,6- E,4 E,2 | %18
 A,4 A,2 G,4 G,2 | F,4 F,2 E,4 C,2 | F,4 F,2 G,4 G,2 | C,6- C,4 B,,2 | A,,4 A,,2 D,4 B,,2 | %23
 E,6 C,4 A,2 | F,4 D,2 E,4 E,2 | A,,6- A,,4 :: E,2 | A,4 E,2 C,4 E,2 | F,4 D,2 A,,4 D,2 | %29
[I:staff -1] C4[I:staff +1] A,2 F,4 G,2 | A,6 A,4 E,2 | A,,4 A,,2 E,4 E,2 | B,,4 B,,2 E,4 B,,2 | %33
 C,4 G,,2 A,,3 A,, B,,2 | E,6 E,4 :: z12 | z12 | z12 | z6 z2 z2 C,2 | F,3 G, A,2 B,,3 C, D,2 | %40
 E,3 F, G,2 A,4 B,,B,, | C,4 C,2 D,4 D,2 | E,6- E,4 z2 | A,3 G, A,2 G,4 G,2 | F,4 F,2 E,4 C,2 | %45
 F,4 F,2 G,4 G,,2 | C,6- C,4 E,2 | A,3 A, C,2 D,3 E, F,2 | B,,3 C, D,2 E,4 G,G, | %49
 A,4 D,2 E,3 E, E,2 | [A,,C,]6- [A,,C,]6 :| D,6 B,,6 | E,6 A,,6 | E,4 E,2 E,3 E, E,2 | F,6- F,6 | %55
 G,6 E,6 | A,6 !fermata!D,6 | A,4 D,2 E,3 E, E,2 | A,,6- A,,6 |] %59
V:7
 x2 | x12 | x12 | x12 | x12 | x12 | x12 | x12 | x10 :: x2 | x12 | x12 | x12 | x12 | x12 | %15
 x6 x2 x2 B,,2 | C,4 C,2 D,4 D,2 | x12 | x12 | x12 | x12 | x12 | x12 | x12 | x12 | x10 :: x2 | %27
 x12 | x12 | A,4 C,2 D,4 E,2 | x12 | x12 | x12 | x12 | x10 :: x12 | x12 | x12 | x12 | x12 | x12 | %41
 x12 | x12 | x12 | x12 | x12 | x12 | x12 | x12 | x6 x2 x2 E,2 | x12 :| x12 | x12 | x12 | x12 | %55
 x12 | x12 | x12 | x12 |] %59

